docs/img/success.svg

<svg width="52" height="39" viewBox="0 0 52 39" fill="none" xmlns="http://www.w3.org/2000/svg">
<path fill-rule="evenodd" clip-rule="evenodd" d="M0.208008 20.1037L4.71205 15.5997L18.3257 29.2133L25.6971 21.8546L25.6209 21.7784L46.6694 0.742676L51.1734 5.24671L39.4249 16.9953L39.501 17.0714L18.4525 38.1071L18.351 37.993L18.2242 38.1198L0.208008 20.1037Z" fill="#47AD4C"/>
</svg>

<svg width="52" height="39" fill="none" xmlns="http://www.w3.org/2000/svg"><path fill-rule="evenodd" clip-rule="evenodd" d="M.208 20.104 4.712 15.6l13.614 13.613 7.371-7.358-.076-.077L46.669.743l4.504 4.504-11.748 11.748.076.076-21.048 21.036-.102-.114-.127.127L.208 20.104Z" fill="#47AD4C"/></svg>
